X: 27423
T: Moll Roe
R: slip jig
M: 9/8
K: Gmajor
D2G GAG FGA|B3 GAB c[Bd][Ae]|D2G GAG FGA|1 BdB cAF GEG:|2 BdB cAF Gdc||
~d3 cAG FED|ded cAB c3|~d3 cAG FGA|1 BdB cAF Gde:|2 BdB cAF GEG||

